X: 124
T: REEL: Trip to Durrow
C: C: Dan Cleary; S: Various
C: Set Leaders: Mars, Tania, Anton
Z: [Unedited]; SPeak at The Session
N: https://thesession.org/members/26966/sets/94276
R: Reel
M: 4/4
L: 1/8
Q: 1/2=100
K: Dmaj
|:D2DF ADFA|dfed B3c|dBBA dBBA|FADE FE E2|
D2DF ADFA|dfed B3c|dBBA FAdB|AFEG FD D2:||
|:dcde fefg|afdf gfed|B/c/d ef gebe|gebe gfef|
d2de fefg|afdf gfed|B/c/d ef gbag|fdec d2de|
fdec d2de|fded B3c|dBBA dBBA|FADE FE E2|
D2DF ADFA|dfed B3c|dBBA FAdB|AFEG FD D2:||

